static/assets/template/assets/img/icons/essential/detailed/Tea.svg

<svg height="150" viewBox="0 0 143 150" width="143" xmlns="http://www.w3.org/2000/svg"><g fill="none" fill-rule="evenodd" transform="translate(1 1)"><g stroke-linecap="round" stroke-linejoin="round" stroke-width="2.1353" transform="translate(0 147)"><path d="m1.7.2h-.9"/><path d="m26.4.2h-21.2"/><path d="m31 .2h-.9"/><path d="m101.2.2h-65.6"/><path d="m131.9.2h-27"/><path d="m136.6.2h-1.3"/><path d="m140.7.2h-.3"/></g><path d="m113.1 120.9c-9.7 0-17.6-7.9-17.6-17.6s7.9-17.6 17.6-17.6 17.6 7.9 17.6 17.6-7.9 17.6-17.6 17.6zm0-27c-5.2 0-9.5 4.2-9.5 9.5s4.2 9.5 9.5 9.5 9.5-4.2 9.5-9.5-4.3-9.5-9.5-9.5z" fill-rule="nonzero"/><path d="m111.9 120.9c-9 0-16.4-7.3-16.4-16.4s7.3-16.4 16.4-16.4 16.4 7.3 16.4 16.4-7.4 16.4-16.4 16.4zm1.2-27c-5.2 0-9.5 4.2-9.5 9.5s4.2 9.5 9.5 9.5 9.5-4.2 9.5-9.5-4.3-9.5-9.5-9.5z" fill="#9ccbff" fill-rule="nonzero"/><path d="m113.1 120.9c-9.7 0-17.6-7.9-17.6-17.6s7.9-17.6 17.6-17.6 17.6 7.9 17.6 17.6-7.9 17.6-17.6 17.6zm0-27c-5.2 0-9.5 4.2-9.5 9.5s4.2 9.5 9.5 9.5 9.5-4.2 9.5-9.5-4.3-9.5-9.5-9.5z" stroke-linecap="round" stroke-linejoin="round" stroke-width="2.1353"/><path d="m113.1 84.5v30.8c0 17.2-13.9 31.2-31.2 31.2h-20.8c-17.2 0-31.2-13.9-31.2-31.2v-30.8c0-3.9 3.2-7 7-7h69c4-.1 7.2 3.1 7.2 7z" fill-rule="nonzero"/><path d="m113.1 88.1v29c0 2.2-.2 4.3-.7 6.3-2.9 13.2-14.5 23-28.5 23h-19.5c-8.7 0-16.5-3.9-21.9-10-1.9-2.2-3.6-4.7-4.8-7.5-1.6-3.6-2.5-7.7-2.5-11.9v-29c0-3.7 3-6.6 6.6-6.6h64.6c3.7.1 6.7 3.1 6.7 6.7z" fill-rule="nonzero"/><path d="m105 137.2c-5.4 5.7-13.1 9.2-21.7 9.2h-18.9c-8.7 0-16.5-3.9-21.9-10 .1-1.9 1.9-3.5 4.1-3 4.4 1.2 9.3 1.8 14.6 1.8h20.8c7.3 0 14.1-1.3 19.4-3.4 3.3-1.1 6 2.9 3.6 5.4z" fill="#c4e0ff" fill-rule="nonzero"/><path d="m113.1 84.5v30.8c0 17.2-13.9 31.2-31.2 31.2h-20.8c-17.2 0-31.2-13.9-31.2-31.2v-30.8c0-3.9 3.2-7 7-7h69c4-.1 7.2 3.1 7.2 7z" stroke-linecap="round" stroke-linejoin="round" stroke-width="2.1353"/><path d="m98.7 107.9v14.4c0 1.6-1.4 2.8-3 2.8h-13.9c-1.7 0-3-1.3-3-2.8v-14.4c0-.8.3-1.5.9-2.1l3.5-3.6c.6-.7 1.6-1 2.5-1h6.2c1 0 1.9.4 2.5 1l3.5 3.6c.5.5.8 1.3.8 2.1z" fill="#9ccbff" fill-rule="nonzero"/><path d="m95.6 105.2v13.2c0 1.4-1.1 2.6-2.6 2.6h-11.7c-1.4 0-2.6-1.1-2.6-2.6v-13.2c0-.7.3-1.4.7-1.9l2.9-3.2c.5-.6 1.3-1 2.1-1h5.2c.8 0 1.6.3 2.1 1l2.9 3.2c.7.5 1 1.2 1 1.9z" fill-rule="nonzero"/><path d="m95.6 105.2v13.2c0 1.4-1.1 2.6-2.6 2.6h-11.7c-1.4 0-2.6-1.1-2.6-2.6v-13.2c0-.7.3-1.4.7-1.9l2.9-3.2c.5-.6 1.3-1 2.1-1h5.2c.8 0 1.6.3 2.1 1l2.9 3.2c.7.5 1 1.2 1 1.9z" stroke-linecap="round" stroke-linejoin="round" stroke-width="2.1353"/><path d="m87.4 98.3v-20.5" stroke-linecap="round" stroke-linejoin="round" stroke-width="2.1353"/><g fill-rule="nonzero" transform="translate(46 77)"><path d="m5.4 25.4c-2.8 0-5 2.3-5 5 0 2.8 2.3 5 5 5 2.8 0 5-2.3 5-5 .1-2.8-2.2-5-5-5z"/><path d="m30.6.4v9.1c0 2.8-2.3 5-5 5-2.8 0-5-2.3-5-5v-1.1c0-1.4-.6-2.6-1.5-3.6-.9-.9-2.2-1.5-3.6-1.5-2.8 0-5 2.3-5 5v7.5c0 1.4-.6 2.6-1.5 3.6-.9.9-2.2 1.5-3.6 1.5-2.8 0-5-2.3-5-5v-15.4h30.2z"/></g><g fill-rule="nonzero" transform="translate(47 78)"><path d="m5 25.4c-2.5 0-4.5 2-4.5 4.5s2 4.5 4.5 4.5 4.5-2 4.5-4.5-2.1-4.5-4.5-4.5z"/><path d="m29.6 2.9v5.5c0 2.8-2.3 5.2-5.1 5.2-2.7-.1-4.9-2.3-4.9-5v-1.1c0-1.4-.6-2.6-1.5-3.6-.9-.9-2.2-1.5-3.6-1.5-2.8 0-5 2.4-5 5.2v7.3c0 1.4-.6 2.6-1.5 3.6-.9.9-.7 1.5-2.1 1.5-2.7 0-5-2.3-5-5.1v-11.5c0-1.3 1.1-2.4 2.4-2.4h24.3c1.1-.1 2 .8 2 1.9z"/></g><g stroke-linecap="round" stroke-linejoin="round" stroke-width="2.1353"><g transform="translate(46 77)"><path d="m5.4 25.4c-2.8 0-5 2.3-5 5 0 2.8 2.3 5 5 5 2.8 0 5-2.3 5-5 .1-2.8-2.2-5-5-5z"/><path d="m30.6.4v9.1c0 2.8-2.3 5-5 5-2.8 0-5-2.3-5-5v-1.1c0-1.4-.6-2.6-1.5-3.6-.9-.9-2.2-1.5-3.6-1.5-2.8 0-5 2.3-5 5v7.5c0 1.4-.6 2.6-1.5 3.6-.9.9-2.2 1.5-3.6 1.5-2.8 0-5-2.3-5-5v-15.4h30.2z"/></g><path d="m75.4 52.2c1.6 4.9.8 11.4-3.8 13.7"/><path d="m64.9 33c-7.5 11.6 4.1 16.2 3.1 23.9"/><path d="m66.3 15.8c1.6.9 2 3.6-.4 5.5-5.7 4.6-14.5-2.9-9.9-12.2 4.3-8.6 16.7-11.3 26.1-3.7 5.6 4.6 6.3 13 2.5 19-4.3 6.7-15.9 10.3-11.8 20.7"/></g></g></svg>

<?xml version="1.0" encoding="UTF-8"?>
<svg width="143px" height="150px" viewBox="0 0 143 150" version="1.1" xmlns="http://www.w3.org/2000/svg" xmlns:xlink="http://www.w3.org/1999/xlink">
    <!-- Generator: Sketch 51.2 (57519) - http://www.bohemiancoding.com/sketch -->
    <title>Tea</title>
    <desc>Created with Sketch.</desc>
    <defs></defs>
    <g id="Page-1" stroke="none" stroke-width="1" fill="none" fill-rule="evenodd">
        <g id="Tea" transform="translate(1.000000, 1.000000)">
            <g id="Group" transform="translate(0.000000, 147.000000)" class="stroke-primary-300" stroke-linecap="round" stroke-linejoin="round" stroke-width="2.1353">
                <path d="M1.7,0.2 L0.8,0.2" id="Shape"></path>
                <path d="M26.4,0.2 L5.2,0.2" id="Shape"></path>
                <path d="M31,0.2 L30.1,0.2" id="Shape"></path>
                <path d="M101.2,0.2 L35.6,0.2" id="Shape"></path>
                <path d="M131.9,0.2 L104.9,0.2" id="Shape"></path>
                <path d="M136.6,0.2 L135.3,0.2" id="Shape"></path>
                <path d="M140.7,0.2 L140.4,0.2" id="Shape"></path>
            </g>
            <path d="M113.1,120.9 C103.4,120.9 95.5,113 95.5,103.3 C95.5,93.6 103.4,85.7 113.1,85.7 C122.8,85.7 130.7,93.6 130.7,103.3 C130.7,113 122.8,120.9 113.1,120.9 Z M113.1,93.9 C107.9,93.9 103.6,98.1 103.6,103.4 C103.6,108.7 107.8,112.9 113.1,112.9 C118.4,112.9 122.6,108.7 122.6,103.4 C122.6,98.1 118.3,93.9 113.1,93.9 Z" id="Shape" class="fill-neutral" fill-rule="nonzero"></path>
            <path d="M111.9,120.9 C102.9,120.9 95.5,113.6 95.5,104.5 C95.5,95.4 102.8,88.1 111.9,88.1 C121,88.1 128.3,95.4 128.3,104.5 C128.3,113.6 120.9,120.9 111.9,120.9 Z M113.1,93.9 C107.9,93.9 103.6,98.1 103.6,103.4 C103.6,108.7 107.8,112.9 113.1,112.9 C118.4,112.9 122.6,108.7 122.6,103.4 C122.6,98.1 118.3,93.9 113.1,93.9 Z" id="Shape" fill="#9CCBFF" fill-rule="nonzero"></path>
            <path d="M113.1,120.9 C103.4,120.9 95.5,113 95.5,103.3 C95.5,93.6 103.4,85.7 113.1,85.7 C122.8,85.7 130.7,93.6 130.7,103.3 C130.7,113 122.8,120.9 113.1,120.9 Z M113.1,93.9 C107.9,93.9 103.6,98.1 103.6,103.4 C103.6,108.7 107.8,112.9 113.1,112.9 C118.4,112.9 122.6,108.7 122.6,103.4 C122.6,98.1 118.3,93.9 113.1,93.9 Z" id="Shape" class="stroke-primary" stroke-width="2.1353" stroke-linecap="round" stroke-linejoin="round"></path>
            <path d="M113.1,84.5 L113.1,115.3 C113.1,132.5 99.2,146.5 81.9,146.5 L61.1,146.5 C43.9,146.5 29.9,132.6 29.9,115.3 L29.9,84.5 C29.9,80.6 33.1,77.5 36.9,77.5 L105.9,77.5 C109.9,77.4 113.1,80.6 113.1,84.5 Z" id="Shape" class="fill-neutral" fill-rule="nonzero"></path>
            <path d="M113.1,88.1 L113.1,117.1 C113.1,119.3 112.9,121.4 112.4,123.4 C109.5,136.6 97.9,146.4 83.9,146.4 L64.4,146.4 C55.7,146.4 47.9,142.5 42.5,136.4 C40.6,134.2 38.9,131.7 37.7,128.9 C36.1,125.3 35.2,121.2 35.2,117 L35.2,88 C35.2,84.3 38.2,81.4 41.8,81.4 L106.4,81.4 C110.1,81.5 113.1,84.5 113.1,88.1 Z" id="Shape" class="fill-primary-100" fill-rule="nonzero"></path>
            <path d="M105,137.2 C99.6,142.9 91.9,146.4 83.3,146.4 L64.4,146.4 C55.7,146.4 47.9,142.5 42.5,136.4 C42.6,134.5 44.4,132.9 46.6,133.4 C51,134.6 55.9,135.2 61.2,135.2 L82,135.2 C89.3,135.2 96.1,133.9 101.4,131.8 C104.7,130.7 107.4,134.7 105,137.2 Z" id="Shape" fill="#C4E0FF" fill-rule="nonzero"></path>
            <path d="M113.1,84.5 L113.1,115.3 C113.1,132.5 99.2,146.5 81.9,146.5 L61.1,146.5 C43.9,146.5 29.9,132.6 29.9,115.3 L29.9,84.5 C29.9,80.6 33.1,77.5 36.9,77.5 L105.9,77.5 C109.9,77.4 113.1,80.6 113.1,84.5 Z" id="Shape" class="stroke-primary" stroke-width="2.1353" stroke-linecap="round" stroke-linejoin="round"></path>
            <path d="M98.7,107.9 L98.7,122.3 C98.7,123.9 97.3,125.1 95.7,125.1 L81.8,125.1 C80.1,125.1 78.8,123.8 78.8,122.3 L78.8,107.9 C78.8,107.1 79.1,106.4 79.7,105.8 L83.2,102.2 C83.8,101.5 84.8,101.2 85.7,101.2 L91.9,101.2 C92.9,101.2 93.8,101.6 94.4,102.2 L97.9,105.8 C98.4,106.3 98.7,107.1 98.7,107.9 Z" id="Shape" fill="#9CCBFF" fill-rule="nonzero"></path>
            <path d="M95.6,105.2 L95.6,118.4 C95.6,119.8 94.5,121 93,121 L81.3,121 C79.9,121 78.7,119.9 78.7,118.4 L78.7,105.2 C78.7,104.5 79,103.8 79.4,103.3 L82.3,100.1 C82.8,99.5 83.6,99.1 84.4,99.1 L89.6,99.1 C90.4,99.1 91.2,99.4 91.7,100.1 L94.6,103.3 C95.3,103.8 95.6,104.5 95.6,105.2 Z" id="Shape" class="fill-neutral" fill-rule="nonzero"></path>
            <path d="M95.6,105.2 L95.6,118.4 C95.6,119.8 94.5,121 93,121 L81.3,121 C79.9,121 78.7,119.9 78.7,118.4 L78.7,105.2 C78.7,104.5 79,103.8 79.4,103.3 L82.3,100.1 C82.8,99.5 83.6,99.1 84.4,99.1 L89.6,99.1 C90.4,99.1 91.2,99.4 91.7,100.1 L94.6,103.3 C95.3,103.8 95.6,104.5 95.6,105.2 Z" id="Shape" class="stroke-primary" stroke-width="2.1353" stroke-linecap="round" stroke-linejoin="round"></path>
            <path d="M87.4,98.3 L87.4,77.8" id="Shape" class="stroke-primary" stroke-width="2.1353" stroke-linecap="round" stroke-linejoin="round"></path>
            <g id="Group" transform="translate(46.000000, 77.000000)" class="fill-neutral" fill-rule="nonzero">
                <path d="M5.4,25.4 C2.6,25.4 0.4,27.7 0.4,30.4 C0.4,33.2 2.7,35.4 5.4,35.4 C8.2,35.4 10.4,33.1 10.4,30.4 C10.5,27.6 8.2,25.4 5.4,25.4 Z" id="Shape"></path>
                <path d="M30.6,0.4 L30.6,9.5 C30.6,12.3 28.3,14.5 25.6,14.5 C22.8,14.5 20.6,12.2 20.6,9.5 L20.6,8.4 C20.6,7 20,5.8 19.1,4.8 C18.2,3.9 16.9,3.3 15.5,3.3 C12.7,3.3 10.5,5.6 10.5,8.3 L10.5,15.8 C10.5,17.2 9.9,18.4 9,19.4 C8.1,20.3 6.8,20.9 5.4,20.9 C2.6,20.9 0.4,18.6 0.4,15.9 L0.4,0.5 L30.6,0.5 L30.6,0.4 Z" id="Shape"></path>
            </g>
            <g id="Group" transform="translate(47.000000, 78.000000)" class="fill-primary-500" fill-rule="nonzero">
                <path d="M5,25.4 C2.5,25.4 0.5,27.4 0.5,29.9 C0.5,32.4 2.5,34.4 5,34.4 C7.5,34.4 9.5,32.4 9.5,29.9 C9.5,27.4 7.4,25.4 5,25.4 Z" id="Shape"></path>
                <path d="M29.6,2.9 L29.6,8.4 C29.6,11.2 27.3,13.6 24.5,13.6 C21.8,13.5 19.6,11.3 19.6,8.6 L19.6,7.5 C19.6,6.1 19,4.9 18.1,3.9 C17.2,3 15.9,2.4 14.5,2.4 C11.7,2.4 9.5,4.8 9.5,7.6 L9.5,14.9 C9.5,16.3 8.9,17.5 8,18.5 C7.1,19.4 7.3,20 5.9,20 C3.2,20 0.9,17.7 0.9,14.9 L0.9,3.4 C0.9,2.1 2,1 3.3,1 L27.6,1 C28.7,0.9 29.6,1.8 29.6,2.9 Z" id="Shape"></path>
            </g>
            <g id="Group" transform="translate(46.000000, 77.000000)" class="stroke-primary" stroke-linecap="round" stroke-linejoin="round" stroke-width="2.1353">
                <path d="M5.4,25.4 C2.6,25.4 0.4,27.7 0.4,30.4 C0.4,33.2 2.7,35.4 5.4,35.4 C8.2,35.4 10.4,33.1 10.4,30.4 C10.5,27.6 8.2,25.4 5.4,25.4 Z" id="Shape"></path>
                <path d="M30.6,0.4 L30.6,9.5 C30.6,12.3 28.3,14.5 25.6,14.5 C22.8,14.5 20.6,12.2 20.6,9.5 L20.6,8.4 C20.6,7 20,5.8 19.1,4.8 C18.2,3.9 16.9,3.3 15.5,3.3 C12.7,3.3 10.5,5.6 10.5,8.3 L10.5,15.8 C10.5,17.2 9.9,18.4 9,19.4 C8.1,20.3 6.8,20.9 5.4,20.9 C2.6,20.9 0.4,18.6 0.4,15.9 L0.4,0.5 L30.6,0.5 L30.6,0.4 Z" id="Shape"></path>
            </g>
            <path d="M75.4,52.2 C77,57.1 76.2,63.6 71.6,65.9" id="Shape" class="stroke-primary-300" stroke-width="2.1353" stroke-linecap="round" stroke-linejoin="round"></path>
            <path d="M64.9,33 C57.4,44.6 69,49.2 68,56.9" id="Shape" class="stroke-primary-300" stroke-width="2.1353" stroke-linecap="round" stroke-linejoin="round"></path>
            <path d="M66.3,15.8 C67.9,16.7 68.3,19.4 65.9,21.3 C60.2,25.9 51.4,18.4 56,9.1 C60.3,0.5 72.7,-2.2 82.1,5.4 C87.7,10 88.4,18.4 84.6,24.4 C80.3,31.1 68.7,34.7 72.8,45.1" id="Shape" class="stroke-primary-300" stroke-width="2.1353" stroke-linecap="round" stroke-linejoin="round"></path>
        </g>
    </g>
</svg>
